docs/assets/img/info.svg

<svg width="16" height="16" fill="none" xmlns="http://www.w3.org/2000/svg"><path d="M8 0C3.6 0 0 3.6 0 8s3.6 8 8 8 8-3.6 8-8-3.6-8-8-8zm.8 12H7.2V7.2h1.6V12zm0-6.4H7.2V4h1.6v1.6z" fill="#FE451D"/></svg>

<svg width="16" height="16" viewBox="0 0 16 16" fill="none" xmlns="http://www.w3.org/2000/svg">
<path d="M8 0C3.6 0 0 3.6 0 8C0 12.4 3.6 16 8 16C12.4 16 16 12.4 16 8C16 3.6 12.4 0 8 0ZM8.8 12H7.2V7.2H8.8V12ZM8.8 5.6H7.2V4H8.8V5.6Z" fill="#FE451D"/>
</svg>
